X:1
T:Title
%%score { 1 | 2 }
L:1/8
M:4/4
K:Bb
V:1 treble nm="Grand Piano"
V:2 bass 
V:1
 z4 z[Q:1/4=100] [DF][B,D][CE] | [EG][DF] [DF]2- [DF][DB][Ec][DB] | %2
 [Fd][Fd] [DB]2- [DB][DB][EA][FB] | cB G2- G[B,GB][B,FA][B,EG] | %4
 [B,DF][K:bass][F,B,D] [A,C]2- [A,C][B,DF][F,B,D][F,CE] | [EG][DF] [DF]2- [DF][DB][Ec][DB] | %6
 [Fd][Fd] [DB]2- [DB][DB][Ec][Fd] | [Fc][Fc][FA][FA] [=Ec][DEB][CEA][B,EG] | [A,F]6 z2 | %9
 [Fd]2 [Fd]2- [Fd][DF][DG][F,B,D] | [A,EF]2 [A,EF]2- [A,EF]FAc | [Ae]2 [Ae]2- [Ae]AGA | %12
 [DG]2 [DF]4 z d | f2 d2 _d3 =d | [Gf]2 [Ge]2 [Gd]2 [Gc]2 | d2 d2- dBAc | %16
[M:5/8] [DB]-[DB]- [DB]3 |] %17
V:2
 z4 z [B,,B,][B,,F,][B,,F,] | [B,,B,][B,,B,] [B,,B,]2- [B,,B,][B,,B,][B,,F,][B,,F,] | %2
 [B,,B,][B,,B,] [B,,F,]2- [B,,F,][B,,F,][C,F,][D,B,] | [E,G,E][E,G,E] [E,B,E]2- [E,B,E]E,E,E, | %4
 B,,B,, F,2- F,B,,B,,B,, | [B,,B,][B,,B,] [B,,B,]2- [B,,B,][B,,B,][B,,F,][B,,F,] | %6
 [B,,B,][B,,B,] [B,,B,]2- [B,,B,][B,,B,][B,,B,][B,,B,] | [C,A,][C,A,][C,C][C,C] [C,C]C,C,C, | %8
 F,6 z2 | [B,,B,]2 [B,,B,]2- [B,,B,][B,,B,][B,,B,]B,, | C,2 C,2- C,[K:treble]EFA | %11
 [F,C]2 [F,C]2- [F,C][F,CF][F,A,E][F,A,E] | [B,,B,]2 [B,,B,]4 z[K:treble] [B,F] | %13
 [B,DF]2 [B,F]2 [B,=E]3 [B,F] | [E,B,]2 [E,B,]2 [E,B,]2 [E,B,]2 | %15
 [F,B,F]2 [F,B,F]2- [F,B,F][F,D][F,C][F,E] |[M:5/8] [B,,F,]-[B,,F,]- [B,,F,]3 |] %17

